X: 193
T:The Ravelled Hank of Yarn
M:2/2
L:1/8
R:Single Reel
Z:Robert Greenway, 13/11/1998
K:G
B3d A3B|G~B3 G~B3|d~A3 dAeg|fdcA BGG2
B3d A3B|G~B3 G~B3|d~A3 dAeg|fdcA G4||
d~G3 dGBd|~g3a bgeg|d~G3 dGeg|fdcA AGG2|
d~G3 dGBd|~g3a bgef|~g3a bgaf|gedB G4||
<end>
<start>
